austria/municipalities/60668.svg

<?xml version="1.0" encoding="UTF-8" standalone="no"?>
<!-- Created with Inkscape (http://www.inkscape.org/) -->

<svg
   xml:space="preserve"
   id="svg11947"
   version="1.1"
   viewBox="0 0 31.75 38.1"
   width="120"
   height="144"
   sodipodi:docname="AUT_Sankt_Marein_bei_Graz_COA.svg"
   inkscape:version="1.2 (dc2aeda, 2022-05-15)"
   xmlns:inkscape="http://www.inkscape.org/namespaces/inkscape"
   xmlns:sodipodi="http://sodipodi.sourceforge.net/DTD/sodipodi-0.dtd"
   xmlns="http://www.w3.org/2000/svg"
   xmlns:svg="http://www.w3.org/2000/svg"><sodipodi:namedview
     id="namedview198"
     pagecolor="#ffffff"
     bordercolor="#000000"
     borderopacity="0.25"
     inkscape:showpageshadow="2"
     inkscape:pageopacity="0.0"
     inkscape:pagecheckerboard="0"
     inkscape:deskcolor="#d1d1d1"
     inkscape:document-units="px"
     showgrid="false"
     inkscape:zoom="1.9991732"
     inkscape:cx="26.51096"
     inkscape:cy="30.262511"
     inkscape:window-width="1390"
     inkscape:window-height="1205"
     inkscape:window-x="2240"
     inkscape:window-y="25"
     inkscape:window-maximized="0"
     inkscape:current-layer="svg11947" /><defs
     id="defs11944"><linearGradient
       id="s_Salbe_Schwarz"
       inkscape:swatch="solid"><stop
         style="stop-color:#000000;stop-opacity:1;"
         offset="0"
         id="stop3747" /></linearGradient><linearGradient
       id="a_Argent_Silber"
       inkscape:swatch="solid"><stop
         style="stop-color:#ffffff;stop-opacity:1;"
         offset="0"
         id="stop3741" /></linearGradient><linearGradient
       id="A_Argent-dark_Silber-dunkel"
       inkscape:swatch="solid"><stop
         style="stop-color:#e7e7e7;stop-opacity:1;"
         offset="0"
         id="stop3735" /></linearGradient><linearGradient
       id="g_Gules_Rot"
       inkscape:swatch="solid"><stop
         style="stop-color:#da121a;stop-opacity:1;"
         offset="0"
         id="stop3729" /></linearGradient><linearGradient
       id="o_Or_Gold"
       inkscape:swatch="solid"><stop
         style="stop-color:#fcdd09;stop-opacity:1;"
         offset="0"
         id="stop3723" /></linearGradient><linearGradient
       id="b_Azure_Blau"
       inkscape:swatch="solid"><stop
         style="stop-color:#0f47af;stop-opacity:1;"
         offset="0"
         id="stop3717" /></linearGradient><linearGradient
       id="B_Bleu-celeste_Hellblau"
       inkscape:swatch="solid"><stop
         style="stop-color:#4d87ca;stop-opacity:1;"
         offset="0"
         id="stop3711" /></linearGradient><linearGradient
       id="B_Bleu-celeste-alt_Hellblau-alt"
       inkscape:swatch="solid"><stop
         style="stop-color:#89c5e3;stop-opacity:1;"
         offset="0"
         id="stop3705" /></linearGradient><linearGradient
       id="v_Vert_Gruen"
       inkscape:swatch="solid"><stop
         style="stop-color:#078930;stop-opacity:1;"
         offset="0"
         id="stop3699" /></linearGradient><linearGradient
       id="c_Carnation_Fleischfarbe"
       inkscape:swatch="solid"><stop
         style="stop-color:#f2a772;stop-opacity:1;"
         offset="0"
         id="stop3693" /></linearGradient><linearGradient
       id="p_Purpure_Purpur"
       inkscape:swatch="solid"><stop
         style="stop-color:#9116a1;stop-opacity:1;"
         offset="0"
         id="stop3687" /></linearGradient><linearGradient
       id="t_Tenne_Braun"
       inkscape:swatch="solid"><stop
         style="stop-color:#9d5333;stop-opacity:1;"
         offset="0"
         id="stop3681" /></linearGradient><linearGradient
       id="C_Cendre_Eisen"
       inkscape:swatch="solid"><stop
         style="stop-color:#999999;stop-opacity:1;"
         offset="0"
         id="stop3675" /></linearGradient><linearGradient
       id="Murray_Maulbeere"
       inkscape:swatch="solid"><stop
         style="stop-color:#630727;stop-opacity:1;"
         offset="0"
         id="stop3669" /></linearGradient><linearGradient
       id="Rose_Rosa"
       inkscape:swatch="solid"><stop
         style="stop-color:#e63d6a;stop-opacity:1;"
         offset="0"
         id="stop2937" /></linearGradient><linearGradient
       id="Orange_Orange"
       inkscape:swatch="solid"><stop
         style="stop-color:#ed5f00;stop-opacity:1;"
         offset="0"
         id="stop2931" /></linearGradient><linearGradient
       id="Buff_Leder"
       inkscape:swatch="solid"><stop
         style="stop-color:#ddc595;stop-opacity:1;"
         offset="0"
         id="stop2925" /></linearGradient><linearGradient
       id="Copper_Kupfer"
       inkscape:swatch="solid"><stop
         style="stop-color:#953d02;stop-opacity:1;"
         offset="0"
         id="stop1435" /></linearGradient><clipPath
       clipPathUnits="userSpaceOnUse"
       id="clipPath2236"><path
         style="color:#000000;fill:#da121a;stroke-width:0.264583;stroke-linecap:round;stroke-linejoin:bevel;paint-order:fill markers stroke"
         d="M 0.52916667,0.52916667 V 19.314583 22.225 c 0,2.893924 0.80154763,5.600459 2.19418133,7.910629 A 16.514807,40.042375 0 0 0 15.723588,0.52916667 Z"
         id="path2238" /></clipPath></defs><g
     inkscape:groupmode="layer"
     id="layer1"
     inkscape:label="Wappen"
     style="display:inline"><path
       d="M 2e-7,3.1e-6 V 22.225003 c 0,8.767498 7.107502,15.875 15.8749998,15.875 8.767498,0 15.875,-7.107502 15.875,-15.875 V 3.1e-6 Z"
       id="path11658"
       style="stroke-width:0.264583"
       inkscape:label="Schildrand"
       sodipodi:nodetypes="cssscc" /><path
       id="rect11660"
       style="opacity:1;fill:#fcdd09;fill-opacity:1;stroke-width:0.529167;stroke-dasharray:none"
       d="M 0.5291666,0.52916659 V 19.314584 22.225 c 0,8.474861 6.8709732,15.345833 15.3458334,15.345833 8.474861,0 15.345833,-6.870972 15.345833,-15.345833 V 19.314584 0.52916659 Z"
       inkscape:label="Schild"
       sodipodi:nodetypes="ccsssccc" /><path
       style="color:#000000;fill:#da121a;stroke-width:0.264583;stroke-linecap:round;stroke-linejoin:bevel;paint-order:fill markers stroke"
       d="M 15.958716,0.52916667 A 16.514807,40.042374 0 0 0 28.718144,30.625004 C 30.299959,28.211529 31.220833,25.325979 31.220833,22.225 V 19.314583 0.52916667 Z"
       id="path2227" /><path
       style="color:#000000;fill:#da121a;stroke-width:0.264583;stroke-linecap:round;stroke-linejoin:bevel;paint-order:fill markers stroke"
       d="M 0.52916667,0.52916667 V 19.314583 22.225 c 0,2.893924 0.80154763,5.600458 2.19418133,7.910628 A 16.514807,40.042374 0 0 0 15.723588,0.52916667 Z"
       id="path2095" /><g
       id="g2232"
       clip-path="url(#clipPath2236)"><rect
         style="opacity:1;fill:#ffffff;stroke:#000000;stroke-width:0.264583;stroke-linecap:butt;stroke-linejoin:miter;stroke-dasharray:none;paint-order:fill markers stroke"
         id="rect2217"
         width="7.8850942"
         height="17.287024"
         x="9.3540878"
         y="-16.125734"
         transform="rotate(90)" /><path
         id="rect2159"
         style="opacity:1;fill:#ffffff;stroke:#000000;stroke-width:0.264583;stroke-linecap:butt;stroke-linejoin:miter;stroke-dasharray:none;paint-order:fill markers stroke"
         d="M 3.8049357,-1.3296346 V 12.288139 h -4.32428384 v 2.200382 H 3.8049357 V 38.1 H 6.6471395 V 14.488521 H 9.7973348 V 38.1 H 12.639539 V 14.488521 h 3.394624 V 12.288139 H 12.639539 V -1.3296346 H 9.7973348 V 12.288139 H 6.6471395 V -1.3296346 Z" /><path
         id="path2220"
         style="opacity:1;fill:#ffffff;stroke:#000000;stroke-width:0.264583;stroke-linecap:butt;stroke-linejoin:miter;stroke-dasharray:none;paint-order:fill markers stroke"
         d="M 3.8049357,-1.3296346 V 9.353951 H 6.6471395 V -1.3296346 Z m 5.9923991,0 V 9.353951 H 12.639539 V -1.3296346 Z M 3.8049357,17.239258 V 38.1 H 6.6471395 V 17.239258 Z m 5.9923991,0 V 38.1 H 12.639539 V 17.239258 Z" /></g><path
       id="path2097"
       style="color:#000000;fill:#000000;stroke-linecap:round;stroke-linejoin:bevel;paint-order:fill markers stroke"
       d="M 15.596981,0.52916667 C 14.699842,9.1966543 12.671065,16.619048 9.9492635,21.927861 c -2.0945049,4.085285 -4.5914387,6.908164 -7.2812093,8.113716 0.045492,0.07669 0.091194,0.153101 0.1379761,0.228927 2.7540728,-1.245332 5.2759292,-4.122991 7.3773277,-8.221721 2.742613,-5.349405 4.750178,-12.8284149 5.649784,-21.51961633 z m 0.253214,0 C 16.703702,9.3729478 18.70047,17.00942 21.459155,22.476664 c 2.043564,4.049995 4.494293,6.937918 7.175273,8.274947 0.04978,-0.07434 0.09929,-0.149023 0.147794,-0.224275 C 26.160739,29.231489 23.733059,26.395748 21.695317,22.357292 18.956852,16.930122 16.93534,9.3503694 16.08429,0.52916667 Z" /><path
       id="rect2240"
       style="opacity:1;fill:#ffffff;stroke:#000000;stroke-width:0.264583;stroke-linecap:butt;stroke-linejoin:miter;stroke-dasharray:none;paint-order:fill markers stroke"
       d="M 22.692672,5.3634969 V 7.180957 h 1.118794 V 6.3815226 h 0.726571 V 7.180957 h 0.979785 V 8.2682292 H 24.538037 V 9.0676636 H 23.811466 V 8.2682292 h -1.118794 v 1.8174598 h 3.850927 V 5.3634969 Z" /><path
       id="rect2303"
       style="opacity:1;fill:#ffffff;stroke:#000000;stroke-width:0.264583;stroke-linecap:butt;stroke-linejoin:miter;stroke-dasharray:none;paint-order:fill markers stroke"
       d="m 27.00352,3.3279622 c -0.25479,0 -0.459921,0.2051302 -0.459921,0.4599203 V 17.6382 l -1.804024,1.804024 a 0.85284334,0.85284334 0 0 0 -0.405143,-0.102836 0.85284334,0.85284334 0 0 0 -0.852661,0.853178 0.85284334,0.85284334 0 0 0 0.852661,0.852661 0.85284334,0.85284334 0 0 0 0.405143,-0.103353 l 1.51412,1.514636 a 0.85284334,0.85284334 0 0 0 -0.102836,0.404627 0.85284334,0.85284334 0 0 0 0.852661,0.853178 0.85284334,0.85284334 0 0 0 0.852661,-0.853178 0.85284334,0.85284334 0 0 0 -0.10232,-0.405143 l 1.513603,-1.51412 a 0.85284334,0.85284334 0 0 0 0.405143,0.103353 0.85284334,0.85284334 0 0 0 0.852662,-0.852661 0.85284334,0.85284334 0 0 0 -0.852662,-0.853178 0.85284334,0.85284334 0 0 0 -0.405143,0.102836 L 27.46344,17.6382 V 3.7878825 c 0,-0.2547901 -0.20513,-0.4599203 -0.45992,-0.4599203 z m 0,15.5902628 1.273824,1.273824 -1.273824,1.274341 -1.273824,-1.274341 z" /><rect
       style="opacity:1;fill:#ffffff;stroke:#000000;stroke-width:0.264583;stroke-linecap:butt;stroke-linejoin:miter;stroke-dasharray:none;paint-order:fill markers stroke"
       id="rect2305"
       width="2.1504531"
       height="0.62379551"
       x="25.928286"
       y="16.546999"
       ry="0.31189775" /><rect
       style="opacity:1;fill:#ffffff;stroke:#000000;stroke-width:0.264583;stroke-linecap:butt;stroke-linejoin:miter;stroke-dasharray:none;paint-order:fill markers stroke"
       id="rect2307"
       width="2.1504531"
       height="0.62379551"
       x="25.928286"
       y="17.170795"
       ry="0.31189775" /><g
       id="g2564"
       transform="translate(-0.3830262)"><path
         style="fill:#0f47af;stroke:#000000;stroke-width:0.264583;stroke-linecap:butt;stroke-linejoin:round;stroke-dasharray:none;paint-order:fill markers stroke"
         d="m 19.665976,26.938121 c -0.508886,-0.47856 -2.413104,-1.083433 -2.413104,1.247592 0,2.331024 1.608736,3.151809 2.445935,2.69217 -0.49247,1.575904 -3.302672,2.670571 -3.069731,-2.560844 0.224428,-5.040226 4.468735,-5.379076 4.530726,-4.235244 0.06822,1.258744 0.396275,2.450723 1.708379,2.856326 -0.559282,1.378918 -2.693319,0.478557 -3.202205,0 z"
         id="path2475"
         sodipodi:nodetypes="sscsscs" /><path
         style="fill:none;stroke:#000000;stroke-width:0.264583;stroke-linecap:round;stroke-linejoin:round;stroke-dasharray:none;paint-order:fill markers stroke"
         d="m 21.537362,26.905288 c -1.001356,-0.44573 -2.13154,-2.554614 -3.053315,-1.756477 -0.934518,0.80917 -3.548686,2.748015 -0.213403,6.303617"
         id="path2479"
         sodipodi:nodetypes="csc" /><path
         id="path2473"
         style="fill:#0f47af;stroke:#000000;stroke-width:0.264583;stroke-linecap:round;stroke-linejoin:round;stroke-dasharray:none;paint-order:fill markers stroke"
         d="m 15.886886,28.317135 c 0,1.608734 -0.541569,2.856356 -0.541569,3.726387 0,0.870029 0.821034,1.657667 0.912605,2.13372 0.09157,-0.476053 0.913123,-1.263691 0.913123,-2.13372 0,-0.870031 -0.542086,-2.117653 -0.542086,-3.726387 0,-1.608737 2.560855,-7.649757 -0.371037,-9.48831 -2.931892,1.838553 -0.371036,7.879573 -0.371036,9.48831 z"
         sodipodi:nodetypes="sscsscs" /><path
         style="opacity:1;fill:none;stroke:#000000;stroke-width:0.264583;stroke-linecap:round;stroke-linejoin:round;stroke-dasharray:none;paint-order:fill markers stroke"
         d="M 16.258026,20.995645 V 32.519448"
         id="path2477" /><path
         style="fill:#0f47af;stroke:#000000;stroke-width:0.264583;stroke-linecap:butt;stroke-linejoin:round;stroke-dasharray:none;paint-order:fill markers stroke"
         d="m 12.850076,26.938121 c 0.508886,-0.47856 2.413104,-1.083433 2.413104,1.247592 0,2.331024 -1.608736,3.151809 -2.445935,2.69217 0.49247,1.575904 3.302672,2.670571 3.069731,-2.560844 -0.224428,-5.040226 -4.468735,-5.379076 -4.530726,-4.235244 -0.06822,1.258744 -0.396275,2.450723 -1.708379,2.856326 0.559282,1.378918 2.693319,0.478557 3.202205,0 z"
         id="path2486"
         sodipodi:nodetypes="sscsscs" /><path
         style="fill:none;stroke:#000000;stroke-width:0.264583;stroke-linecap:round;stroke-linejoin:round;stroke-dasharray:none;paint-order:fill markers stroke"
         d="m 10.97869,26.905288 c 1.001356,-0.44573 2.13154,-2.554614 3.053315,-1.756477 0.934518,0.80917 3.548686,2.748015 0.213403,6.303617"
         id="path2488"
         sodipodi:nodetypes="csc" /><rect
         style="opacity:1;fill:#0f47af;stroke:#000000;stroke-width:0.264583;stroke-linecap:round;stroke-linejoin:round;stroke-dasharray:none;paint-order:fill markers stroke"
         id="rect2553"
         width="3.4965384"
         height="1.2778683"
         x="14.509653"
         y="27.761456"
         ry="0.54113024" /></g></g></svg>

<svg xml:space="preserve" viewBox="0 0 31.75 38.1" width="120" height="144" xmlns="http://www.w3.org/2000/svg"><defs><clipPath clipPathUnits="userSpaceOnUse" id="a"><path style="color:#000;fill:#da121a;stroke-width:.264583;stroke-linecap:round;stroke-linejoin:bevel;paint-order:fill markers stroke" d="M.53.53v21.695c0 2.894.8 5.6 2.193 7.91a16.515 40.042 0 0 0 13-29.606z"/></clipPath></defs><g style="display:inline"><path d="M0 0v22.225C0 30.993 7.108 38.1 15.875 38.1S31.75 30.993 31.75 22.225V0z" style="stroke-width:.264583"/><path style="opacity:1;fill:#fcdd09;fill-opacity:1;stroke-width:.529167;stroke-dasharray:none" d="M.53.53v21.695c0 8.475 6.87 15.346 15.345 15.346 8.475 0 15.346-6.871 15.346-15.346V.529z"/><path style="color:#000;fill:#da121a;stroke-width:.264583;stroke-linecap:round;stroke-linejoin:bevel;paint-order:fill markers stroke" d="M15.959.53a16.515 40.042 0 0 0 12.76 30.095 15.272 15.272 0 0 0 2.502-8.4V.529zM.53.53v21.695c0 2.894.8 5.6 2.193 7.91a16.515 40.042 0 0 0 13-29.606z"/><g clip-path="url(#a)"><path style="opacity:1;fill:#fff;stroke:#000;stroke-width:.264583;stroke-linecap:butt;stroke-linejoin:miter;stroke-dasharray:none;paint-order:fill markers stroke" transform="rotate(90)" d="M9.354-16.126h7.885V1.161H9.354z"/><path style="opacity:1;fill:#fff;stroke:#000;stroke-width:.264583;stroke-linecap:butt;stroke-linejoin:miter;stroke-dasharray:none;paint-order:fill markers stroke" d="M3.805-1.33v13.618H-.52v2.2h4.324V38.1h2.842V14.489h3.15V38.1h2.843V14.489h3.394v-2.2H12.64V-1.33H9.797v13.618h-3.15V-1.33z"/><path style="opacity:1;fill:#fff;stroke:#000;stroke-width:.264583;stroke-linecap:butt;stroke-linejoin:miter;stroke-dasharray:none;paint-order:fill markers stroke" d="M3.805-1.33V9.354h2.842V-1.33zm5.992 0V9.354h2.843V-1.33zM3.805 17.24V38.1h2.842V17.24zm5.992 0V38.1h2.843V17.24z"/></g><path style="color:#000;fill:#000;stroke-linecap:round;stroke-linejoin:bevel;paint-order:fill markers stroke" d="M15.597.53c-.897 8.667-2.926 16.089-5.648 21.398-2.094 4.085-4.591 6.908-7.28 8.114.045.076.09.153.137.229 2.754-1.246 5.276-4.123 7.377-8.222 2.743-5.35 4.75-12.829 5.65-21.52zm.253 0c.854 8.843 2.85 16.48 5.61 21.947 2.043 4.05 4.493 6.938 7.174 8.275.05-.075.1-.15.148-.225-2.621-1.296-5.049-4.131-7.087-8.17C18.957 16.93 16.935 9.35 16.085.53z"/><path style="opacity:1;fill:#fff;stroke:#000;stroke-width:.264583;stroke-linecap:butt;stroke-linejoin:miter;stroke-dasharray:none;paint-order:fill markers stroke" d="M22.693 5.363v1.818h1.118v-.8h.727v.8h.98v1.087h-.98v.8h-.727v-.8h-1.118v1.818h3.85V5.363z"/><path style="opacity:1;fill:#fff;stroke:#000;stroke-width:.264583;stroke-linecap:butt;stroke-linejoin:miter;stroke-dasharray:none;paint-order:fill markers stroke" d="M27.004 3.328a.459.459 0 0 0-.46.46v13.85l-1.804 1.804a.853.853 0 0 0-.406-.103.853.853 0 0 0-.852.854.853.853 0 0 0 .852.852.853.853 0 0 0 .406-.103l1.514 1.515a.853.853 0 0 0-.103.404.853.853 0 0 0 .853.853.853.853 0 0 0 .852-.853.853.853 0 0 0-.102-.405l1.513-1.514a.853.853 0 0 0 .406.103.853.853 0 0 0 .852-.852.853.853 0 0 0-.852-.854.853.853 0 0 0-.406.103l-1.804-1.804V3.788a.459.459 0 0 0-.46-.46zm0 15.59 1.273 1.274-1.273 1.274-1.274-1.274z"/><rect style="opacity:1;fill:#fff;stroke:#000;stroke-width:.264583;stroke-linecap:butt;stroke-linejoin:miter;stroke-dasharray:none;paint-order:fill markers stroke" width="2.15" height=".624" x="25.928" y="16.547" ry=".312"/><rect style="opacity:1;fill:#fff;stroke:#000;stroke-width:.264583;stroke-linecap:butt;stroke-linejoin:miter;stroke-dasharray:none;paint-order:fill markers stroke" width="2.15" height=".624" x="25.928" y="17.171" ry=".312"/><g transform="translate(-.383)"><path style="fill:#0f47af;stroke:#000;stroke-width:.264583;stroke-linecap:butt;stroke-linejoin:round;stroke-dasharray:none;paint-order:fill markers stroke" d="M19.666 26.938c-.509-.478-2.413-1.083-2.413 1.248 0 2.33 1.609 3.152 2.446 2.692-.493 1.576-3.303 2.67-3.07-2.561.225-5.04 4.469-5.379 4.53-4.235.069 1.259.397 2.45 1.71 2.856-.56 1.379-2.694.479-3.203 0z"/><path style="fill:none;stroke:#000;stroke-width:.264583;stroke-linecap:round;stroke-linejoin:round;stroke-dasharray:none;paint-order:fill markers stroke" d="M21.537 26.905c-1.001-.445-2.131-2.554-3.053-1.756-.934.809-3.549 2.748-.213 6.303"/><path style="fill:#0f47af;stroke:#000;stroke-width:.264583;stroke-linecap:round;stroke-linejoin:round;stroke-dasharray:none;paint-order:fill markers stroke" d="M15.887 28.317c0 1.609-.542 2.856-.542 3.727 0 .87.821 1.657.913 2.133.091-.476.913-1.263.913-2.133 0-.87-.542-2.118-.542-3.727s2.56-7.65-.371-9.488c-2.932 1.838-.371 7.88-.371 9.488z"/><path style="opacity:1;fill:none;stroke:#000;stroke-width:.264583;stroke-linecap:round;stroke-linejoin:round;stroke-dasharray:none;paint-order:fill markers stroke" d="M16.258 20.996v11.523"/><path style="fill:#0f47af;stroke:#000;stroke-width:.264583;stroke-linecap:butt;stroke-linejoin:round;stroke-dasharray:none;paint-order:fill markers stroke" d="M12.85 26.938c.509-.478 2.413-1.083 2.413 1.248 0 2.33-1.609 3.152-2.446 2.692.493 1.576 3.303 2.67 3.07-2.561-.224-5.04-4.469-5.379-4.53-4.235-.069 1.259-.397 2.45-1.71 2.856.56 1.379 2.694.479 3.203 0z"/><path style="fill:none;stroke:#000;stroke-width:.264583;stroke-linecap:round;stroke-linejoin:round;stroke-dasharray:none;paint-order:fill markers stroke" d="M10.979 26.905c1.001-.445 2.131-2.554 3.053-1.756.935.809 3.549 2.748.213 6.303"/><rect style="opacity:1;fill:#0f47af;stroke:#000;stroke-width:.264583;stroke-linecap:round;stroke-linejoin:round;stroke-dasharray:none;paint-order:fill markers stroke" width="3.497" height="1.278" x="14.51" y="27.761" ry=".541"/></g></g></svg>
